X:12
T:Alterations
C:John Johnson, 1750
L:1/4
M:2/2
S:Colin Hume's website,  colinhume.com  - chords can also be printed below the stave.
Q:1/2=115
K:A
P:A
|: "A"A/B/c/d/ "/"ea | "A"e2 "/"cA | "D"d2fd | "E7"B2 "/"GE |\
"F#m"AG "/"FE | "D"F/G/A- "/"AB | "A"cA "Bm"dc | "E"c2 "/"B2 :|
P:B
|: "Bm"B/A/B/c/ "/"Bc | "D"de "/"f2 | "F#m"FG "/"A2 | "E7"dB "/"c2 |\
"A"A/B/c/d/ "/"ea | "D"fd "/"af | "E7"ed "/"cB | "A"A2 "/"A2 :|

